X: 1
T: My Home
C: from John Chambers, arr. 4-29-2006 T. Traub
C: as played by Morgan MacQuarrie
M: 3/4
L: 1/8
R: waltz
K:G
dc \
| "G"B3 A G2 | G2 B2 d2 | "C"g2 f2 e2 | "G"d4 c2 | "G"B3 A B2 | "Em"G3 A B2 | "Am"c3 B c2 | "D7"A4 dc |
"G"B3 A G2 | G2 B2 d2 | "C"g2 f2 e2 | "D7"d4 c2 | "G"B G3 B2 | "F"A =F3 A2 | "G"G3 A G2 | G4 |]
d2 \
| "G"G3 A B2 | B3 A B2 | d3 c B2 |"(Em)"B4 d2 | "Am"c3 B c2 | "D7"A2 B2 c2 | "G"d3 B G2 | G4 d2 |
"C"e3 c e2 | g3 f e2 | "G"d3 c B2 | "C"g4 c2 | "G"B G3 B2 | "F"A =F3 A2 | "G"G3 A G2 | G4 |]
